public/payments/common/skrill-1-tap.svg

<svg width="90" height="54" viewBox="0 0 90 54" fill="none" xmlns="http://www.w3.org/2000/svg">
<path fill-rule="evenodd" clip-rule="evenodd" d="M64.837 4.092C64.8363 4.49739 64.7558 4.89869 64.6001 5.27297C64.4444 5.64725 64.2164 5.98719 63.9293 6.27338C63.6422 6.55957 63.3015 6.7864 62.9267 6.94093C62.5519 7.09546 62.1504 7.17466 61.745 7.174C61.3396 7.17335 60.9383 7.09285 60.564 6.93711C60.1898 6.78136 59.8498 6.55343 59.5636 6.26631C59.2774 5.97919 59.0506 5.63851 58.8961 5.26373C58.7415 4.88895 58.6623 4.4874 58.663 4.082C58.6635 3.67666 58.7439 3.27539 58.8995 2.90112C59.0552 2.52684 59.283 2.18689 59.57 1.90069C59.8571 1.61449 60.1977 1.38764 60.5724 1.23309C60.9472 1.07855 61.3487 0.999347 61.754 1C62.1597 0.999606 62.5616 1.07938 62.9364 1.23473C63.3112 1.39009 63.6516 1.61797 63.9381 1.90529C64.2246 2.19261 64.4515 2.53369 64.6057 2.90896C64.76 3.28422 64.8386 3.68627 64.837 4.092ZM34.506 14.966C36.026 13.136 37.225 11.066 38.078 8.845L38.068 8.836H45.469C44.4546 11.9233 42.9191 14.814 40.929 17.383C40.929 17.383 44.288 23.255 45.052 26.445H37.305C36.7425 23.9684 35.7982 21.5943 34.506 19.408V26.454H28.038V3.684L34.506 2.404V14.966ZM46.349 16.556C46.349 11.395 49.289 8.792 55.082 8.605V8.596C55.633 8.57 56.192 8.605 56.744 8.685V13.829C53.074 13.953 52.666 15.286 52.666 18.378V26.454H46.349V16.556ZM17.187 11.35H17.199H17.19C23 11.732 26.466 14.575 26.466 18.955C26.466 22.82 23.374 26.711 16.462 26.711C13.649 26.7558 10.842 26.4365 8.111 25.761V20.137C10.3484 21.0243 12.7312 21.4882 15.138 21.505C17.643 21.505 19.136 20.679 19.136 19.266C19.136 17.572 17.339 17.456 16.645 17.41H16.631C8.537 16.859 7.666 12.079 7.666 10.044C7.666 6.517 10.172 2.404 17.235 2.404C20.033 2.324 22.815 2.768 25.444 3.71L25.542 3.736V9.183L25.471 9.165C24.706 8.845 23.809 8.525 23.809 8.525C21.9917 7.95028 20.1071 7.61578 18.203 7.53C17.208 7.53 14.57 7.53 14.57 9.529C14.57 11.173 16.39 11.297 17.187 11.35ZM64.882 26.454H58.618V8.86301H64.882V26.454ZM76.689 26.454V3.524L82.961 2.404V26.454H76.689ZM73.802 2.404L67.538 3.524V26.454H73.802V2.404ZM10.776 34.912H10.829V47.972H14.561V31.482H11.362L7 33.508L7.63 36.404L10.776 34.912ZM26.341 40.038V42.597H19.696V40.037L26.341 40.038ZM26.084 34.13H30.668V47.98H34.55V34.13H39.224V30.878H26.084V34.13ZM46.535 47.98L46.305 46.737H46.225C45.416 47.723 44.145 48.257 42.671 48.257C40.157 48.257 38.664 46.426 38.664 44.454C38.664 41.229 41.56 39.683 45.949 39.709V39.532C45.949 38.874 45.594 37.932 43.692 37.932C42.422 37.932 41.08 38.368 40.263 38.874L39.553 36.387C40.414 35.907 42.111 35.294 44.377 35.294C48.517 35.294 49.831 37.728 49.831 40.651V44.969C49.831 46.159 49.885 47.305 50.009 47.989H46.535V47.98ZM46.082 42.117C44.057 42.09 42.475 42.57 42.475 44.072C42.475 45.058 43.133 45.546 43.995 45.546C44.963 45.546 45.745 44.916 46.002 44.125C46.056 43.92 46.082 43.69 46.082 43.467V42.117ZM52.79 35.578C52.834 36.715 52.888 38.11 52.888 39.736L52.897 39.727V53H56.752V46.835H56.806C57.366 47.643 58.529 48.256 60.031 48.256C62.794 48.256 65.664 46.124 65.664 41.611C65.664 37.657 63.229 35.294 60.511 35.294C58.707 35.294 57.285 35.978 56.371 37.302H56.317L56.139 35.578H52.79ZM56.824 43.458C56.767 43.1925 56.7402 42.9215 56.744 42.65V40.953C56.744 40.723 56.77 40.473 56.824 40.269C57.081 39.123 58.041 38.315 59.134 38.315C60.857 38.315 61.745 39.807 61.745 41.788C61.745 43.894 60.75 45.288 59.08 45.288C57.96 45.288 57.081 44.498 56.824 43.458ZM68.55 31.74H66.267V30.123H72.805V31.74H70.48V38.634H68.55V31.74ZM80.976 35.285L80.979 35.383V35.391L81.103 38.652H82.987L82.517 30.141H80.002L79.096 32.966C78.82 33.916 78.527 35.036 78.287 36.022H78.252C78.052 34.9973 77.8118 33.9809 77.532 32.975L76.697 30.132H74.13L73.588 38.643H75.365L75.516 35.409C75.553 34.771 75.581 34.043 75.609 33.316C75.627 32.829 75.646 32.342 75.667 31.882H75.694C75.898 32.992 76.191 34.21 76.467 35.205L77.373 38.501H78.874L79.914 35.178C80.243 34.183 80.598 32.966 80.864 31.882H80.9C80.9 33.087 80.941 34.283 80.976 35.285Z" fill="#852268"/>
</svg>

<svg xmlns="http://www.w3.org/2000/svg" width="90" height="54" fill="none"><path fill="#852268" fill-rule="evenodd" d="M64.84 4.1a3.09 3.09 0 1 1-6.18-.02 3.09 3.09 0 0 1 6.18.01ZM34.5 14.96a21.8 21.8 0 0 0 3.57-6.13h-.01 7.4a28.47 28.47 0 0 1-4.54 8.54s3.36 5.88 4.12 9.07h-7.74a24.5 24.5 0 0 0-2.8-7.04v7.04h-6.47V3.68L34.5 2.4v12.57Zm11.84 1.59c0-5.16 2.94-7.77 8.73-7.95V8.6c.55-.03 1.11 0 1.66.09v5.14c-3.67.12-4.07 1.46-4.07 4.55v8.07h-6.32v-9.9Zm-29.16-5.21c5.81.38 9.28 3.22 9.28 7.6 0 3.87-3.1 7.76-10 7.76-2.82.05-5.63-.27-8.36-.95v-5.62c2.24.88 4.62 1.35 7.03 1.36 2.5 0 4-.82 4-2.23 0-1.7-1.8-1.81-2.5-1.86-8.1-.55-8.97-5.33-8.97-7.37 0-3.52 2.5-7.64 9.56-7.64 2.8-.08 5.59.37 8.21 1.31l.1.03v5.44l-.07-.02c-.76-.31-1.66-.63-1.66-.63-1.82-.58-3.7-.91-5.6-1-1 0-3.64 0-3.64 2 0 1.64 1.82 1.77 2.62 1.82Zm47.7 15.1h-6.27V8.86h6.26v17.6Zm11.8 0V3.52l6.27-1.12v24.05H76.7ZM73.8 2.4l-6.26 1.12v22.93h6.26V2.4ZM10.78 34.91h.05v13.06h3.73V31.48h-3.2L7 33.51l.63 2.9 3.15-1.5Zm15.56 5.13v2.56H19.7v-2.56h6.64Zm-.26-5.91h4.59v13.85h3.88V34.13h4.67v-3.25H26.08v3.25Zm20.45 13.85-.23-1.24h-.07a4.48 4.48 0 0 1-3.56 1.52c-2.51 0-4-1.83-4-3.8 0-3.23 2.89-4.78 7.28-4.75v-.18c0-.66-.36-1.6-2.26-1.6-1.27 0-2.61.44-3.43.94l-.7-2.48c.85-.48 2.55-1.1 4.82-1.1 4.14 0 5.45 2.44 5.45 5.36v4.32c0 1.19.05 2.34.18 3.02h-3.48v-.01Zm-.45-5.86c-2.02-.03-3.6.45-3.6 1.95 0 .99.65 1.48 1.52 1.48a2.1 2.1 0 0 0 2-1.42c.06-.21.08-.44.08-.66v-1.35Zm6.71-6.54c.04 1.14.1 2.53.1 4.16v-.01V53h3.86v-6.16h.06c.56.8 1.72 1.42 3.22 1.42 2.76 0 5.63-2.14 5.63-6.65 0-3.95-2.43-6.32-5.15-6.32-1.8 0-3.23.69-4.14 2.01h-.05l-.18-1.72h-3.35Zm4.03 7.88a3.6 3.6 0 0 1-.08-.81v-1.7c0-.23.03-.48.08-.68a2.42 2.42 0 0 1 2.31-1.96c1.73 0 2.61 1.5 2.61 3.48 0 2.1-.99 3.5-2.66 3.5-1.12 0-2-.8-2.26-1.83Zm11.73-11.72h-2.28v-1.62h6.54v1.62h-2.33v6.9h-1.93v-6.9Zm12.43 3.54v.11l.12 3.26H83l-.47-8.5H80l-.9 2.82a75.7 75.7 0 0 0-.81 3.05h-.04c-.2-1.02-.44-2.04-.72-3.05l-.83-2.84h-2.57l-.54 8.51h1.77l.16-3.23.09-2.1.06-1.43h.02c.2 1.11.5 2.33.78 3.32l.9 3.3h1.5l1.04-3.32c.33-1 .69-2.21.95-3.3h.04c0 1.2.04 2.4.08 3.4Z" clip-rule="evenodd"/></svg>
